; HEADER_BLOCK_START
; generated by OrcaSlicer 1.7.0 on 2023-10-09 at 11:30:17
; total layer number: 1
; HEADER_BLOCK_END

; THUMBNAIL_BLOCK_START
; THUMBNAIL_BLOCK_END

; external perimeters extrusion width = 0.40mm
; perimeters extrusion width = 0.40mm
; infill extrusion width = 0.45mm
; solid infill extrusion width = 0.40mm
; top infill extrusion width = 0.40mm
; first layer extrusion width = 0.50mm

; EXECUTABLE_BLOCK_START
EXCLUDE_OBJECT_DEFINE NAME=Cube_id_0_copy_0 CENTER=170,170 POLYGON=[[117.5,117.5],[222.5,117.5],[222.5,222.5],[117.5,222.5],[117.5,117.5]]
M73 P0 R4
;TYPE:Custom
PRINT_START HOTEND=260 BED=105 CHAMBER=30
G90
G21
M83 ; use relative distances for extrusion
; Filament gcode
M106 S0
;LAYER_CHANGE
;Z:0.2
;HEIGHT:0.2
;BEFORE_LAYER_CHANGE
;0.2
G92 E0

G1 E-.8 F1800
;AFTER_LAYER_CHANGE
;0.2
;_SET_FAN_SPEED_CHANGING_LAYER
SET_VELOCITY_LIMIT ACCEL=500 ACCEL_TO_DECEL=250
SET_VELOCITY_LIMIT SQUARE_CORNER_VELOCITY=9
; printing object Cube id:0 copy 0
EXCLUDE_OBJECT_START NAME=Cube_id_0_copy_0
G1 Z.4 F24000
G1 X221.336 Y221.336
G1 Z.4
G1 Z.2
G1 E.8 F1800
;TYPE:Inner wall
;WIDTH:0.499999
G1 F4800
G1 X118.664 Y221.336 E3.61341
M73 P1 R4
G1 X118.664 Y118.664 E3.61341
G1 X221.336 Y118.664 E3.61341
M73 P2 R4
G1 X221.336 Y170 E1.8067
G1 X221.336 Y221.296 E1.8053
G1 X221.793 Y221.793 F24000
G1 F4800
G1 X118.207 Y221.793 E3.64558
M73 P3 R4
G1 X118.207 Y118.207 E3.64558
G1 X221.793 Y118.207 E3.64558
M73 P4 R4
G1 X221.793 Y170 E1.82279
G1 X221.793 Y221.753 E1.82138
G1 X222.25 Y222.25 F24000
;TYPE:Outer wall
G1 F4800
G1 X117.75 Y222.25 E3.67775
M73 P5 R4
G1 X117.75 Y117.75 E3.67775
G1 X222.25 Y117.75 E3.67775
M73 P6 R4
G1 X222.25 Y170 E1.83888
G1 X222.25 Y222.21 E1.83747
G1 E-.56 F1800
;WIPE_START
G1 F4800
G1 X221.25 Y222.21 E-.24
;WIPE_END
G1 Z.6 F24000
G1 X220.272 Y118.801 Z.6
G1 Z.2
M73 P7 R4
G1 E.8 F1800
;TYPE:Bottom surface
;WIDTH:0.501389
G1 F7200
G1 X220.993 Y119.523 E.03601
G1 X220.993 Y120.171 E.02289
G1 X219.829 Y119.007 E.05811
G1 X219.181 Y119.007 E.02289
G1 X220.993 Y120.819 E.09048
G1 X220.993 Y121.468 E.02289
G1 X218.532 Y119.007 E.12284
G1 X217.884 Y119.007 E.02289
G1 X220.993 Y122.116 E.15521
G1 X220.993 Y122.764 E.02289
G1 X217.236 Y119.007 E.18758
G1 X216.587 Y119.007 E.02289
G1 X220.993 Y123.413 E.21995
G1 X220.993 Y124.061 E.02289
G1 X215.939 Y119.007 E.25232
G1 X215.291 Y119.007 E.02289
G1 X220.993 Y124.709 E.28469
G1 X220.993 Y125.358 E.02289
G1 X214.642 Y119.007 E.31706
G1 X213.994 Y119.007 E.02289
G1 X220.993 Y126.006 E.34942
G1 X220.993 Y126.655 E.02289
G1 X213.345 Y119.007 E.38179
G1 X212.697 Y119.007 E.02289
G1 X220.993 Y127.303 E.41416
M73 P8 R4
G1 X220.993 Y127.951 E.02289
G1 X212.049 Y119.007 E.44653
G1 X211.4 Y119.007 E.02289
G1 X220.993 Y128.6 E.4789
G1 X220.993 Y129.248 E.02289
G1 X210.752 Y119.007 E.51127
G1 X210.104 Y119.007 E.02289
G1 X220.993 Y129.896 E.54364
G1 X220.993 Y130.545 E.02289
G1 X209.455 Y119.007 E.57601
G1 X208.807 Y119.007 E.02289
G1 X220.993 Y131.193 E.60837
G1 X220.993 Y131.842 E.02289
G1 X208.158 Y119.007 E.64074
G1 X207.51 Y119.007 E.02289
G1 X220.993 Y132.49 E.67311
M73 P9 R4
G1 X220.993 Y133.138 E.02289
G1 X206.862 Y119.007 E.70548
G1 X206.213 Y119.007 E.02289
G1 X220.993 Y133.787 E.73785
G1 X220.993 Y134.435 E.02289
G1 X205.565 Y119.007 E.77022
G1 X204.917 Y119.007 E.02289
G1 X220.993 Y135.083 E.80259
G1 X220.993 Y135.732 E.02289
G1 X204.268 Y119.007 E.83495
G1 X203.62 Y119.007 E.02289
G1 X220.993 Y136.38 E.86732
G1 X220.993 Y137.029 E.02289
G1 X202.971 Y119.007 E.89969
M73 P10 R4
G1 X202.323 Y119.007 E.02289
G1 X220.993 Y137.677 E.93206
G1 X220.993 Y138.325 E.02289
G1 X201.675 Y119.007 E.96443
G1 X201.026 Y119.007 E.02289
G1 X220.993 Y138.974 E.9968
G1 X220.993 Y139.622 E.02289
G1 X200.378 Y119.007 E1.02917
G1 X199.73 Y119.007 E.02289
G1 X220.993 Y140.27 E1.06154
G1 X220.993 Y140.919 E.02289
M73 P11 R4
G1 X199.081 Y119.007 E1.0939
G1 X198.433 Y119.007 E.02289
G1 X220.993 Y141.567 E1.12627
G1 X220.993 Y142.216 E.02289
G1 X197.784 Y119.007 E1.15864
G1 X197.136 Y119.007 E.02289
G1 X220.993 Y142.864 E1.19101
G1 X220.993 Y143.512 E.02289
G1 X196.488 Y119.007 E1.22338
G1 X195.839 Y119.007 E.02289
G1 X220.993 Y144.161 E1.25575
M73 P12 R4
G1 X220.993 Y144.809 E.02289
G1 X195.191 Y119.007 E1.28812
G1 X194.543 Y119.007 E.02289
G1 X220.993 Y145.457 E1.32048
G1 X220.993 Y146.106 E.02289
G1 X193.894 Y119.007 E1.35285
G1 X193.246 Y119.007 E.02289
G1 X220.993 Y146.754 E1.38522
G1 X220.993 Y147.403 E.02289
G1 X192.597 Y119.007 E1.41759
M73 P13 R4
G1 X191.949 Y119.007 E.02289
G1 X220.993 Y148.051 E1.44996
G1 X220.993 Y148.699 E.02289
G1 X191.301 Y119.007 E1.48233
G1 X190.652 Y119.007 E.02289
G1 X220.993 Y149.348 E1.5147
G1 X220.993 Y149.996 E.02289
G1 X190.004 Y119.007 E1.54707
G1 X189.356 Y119.007 E.02289
G1 X220.993 Y150.644 E1.57943
M73 P14 R4
G1 X220.993 Y151.293 E.02289
G1 X188.707 Y119.007 E1.6118
G1 X188.059 Y119.007 E.02289
G1 X220.993 Y151.941 E1.64417
G1 X220.993 Y152.59 E.02289
G1 X187.41 Y119.007 E1.67654
G1 X186.762 Y119.007 E.02289
G1 X220.993 Y153.238 E1.70891
M73 P15 R4
G1 X220.993 Y153.886 E.02289
G1 X186.114 Y119.007 E1.74128
G1 X185.465 Y119.007 E.02289
G1 X220.993 Y154.535 E1.77365
G1 X220.993 Y155.183 E.02289
G1 X184.817 Y119.007 E1.80602
G1 X184.169 Y119.007 E.02289
G1 X220.993 Y155.831 E1.83838
M73 P16 R4
G1 X220.993 Y156.48 E.02289
G1 X183.52 Y119.007 E1.87075
M73 P16 R3
G1 X182.872 Y119.007 E.02289
G1 X220.993 Y157.128 E1.90312
G1 X220.993 Y157.777 E.02289
G1 X182.223 Y119.007 E1.93549
G1 X181.575 Y119.007 E.02289
G1 X220.993 Y158.425 E1.96786
G1 X220.993 Y159.073 E.02289
M73 P17 R3
G1 X180.927 Y119.007 E2.00023
G1 X180.278 Y119.007 E.02289
G1 X220.993 Y159.722 E2.0326
G1 X220.993 Y160.37 E.02289
G1 X179.63 Y119.007 E2.06496
G1 X178.982 Y119.007 E.02289
G1 X220.993 Y161.018 E2.09733
M73 P18 R3
G1 X220.993 Y161.667 E.02289
G1 X178.333 Y119.007 E2.1297
G1 X177.685 Y119.007 E.02289
G1 X220.993 Y162.315 E2.16207
G1 X220.993 Y162.964 E.02289
G1 X177.036 Y119.007 E2.19444
G1 X176.388 Y119.007 E.02289
G1 X220.993 Y163.612 E2.22681
M73 P19 R3
G1 X220.993 Y164.26 E.02289
G1 X175.74 Y119.007 E2.25918
G1 X175.091 Y119.007 E.02289
G1 X220.993 Y164.909 E2.29155
G1 X220.993 Y165.557 E.02289
G1 X174.443 Y119.007 E2.32391
G1 X173.795 Y119.007 E.02289
G1 X220.993 Y166.205 E2.35628
M73 P20 R3
G1 X220.993 Y166.854 E.02289
G1 X173.146 Y119.007 E2.38865
G1 X172.498 Y119.007 E.02289
G1 X220.993 Y167.502 E2.42102
G1 X220.993 Y168.15 E.02289
G1 X171.85 Y119.007 E2.45339
M73 P21 R3
G1 X171.201 Y119.007 E.02289
G1 X220.993 Y168.799 E2.48576
G1 X220.993 Y169.447 E.02289
G1 X170.553 Y119.007 E2.51813
G1 X169.904 Y119.007 E.02289
G1 X220.993 Y170.096 E2.55049
G1 X220.993 Y170.744 E.02289
G1 X169.256 Y119.007 E2.58286
M73 P22 R3
G1 X168.608 Y119.007 E.02289
G1 X220.993 Y171.392 E2.61523
G1 X220.993 Y172.041 E.02289
G1 X167.959 Y119.007 E2.6476
G1 X167.311 Y119.007 E.02289
G1 X220.993 Y172.689 E2.67997
M73 P23 R3
G1 X220.993 Y173.337 E.02289
G1 X166.663 Y119.007 E2.71234
G1 X166.014 Y119.007 E.02289
G1 X220.993 Y173.986 E2.74471
G1 X220.993 Y174.634 E.02289
G1 X165.366 Y119.007 E2.77708
M73 P24 R3
G1 X164.717 Y119.007 E.02289
G1 X220.993 Y175.283 E2.80944
G1 X220.993 Y175.931 E.02289
G1 X164.069 Y119.007 E2.84181
G1 X163.421 Y119.007 E.02289
G1 X220.993 Y176.579 E2.87418
M73 P25 R3
G1 X220.993 Y177.228 E.02289
G1 X162.772 Y119.007 E2.90655
G1 X162.124 Y119.007 E.02289
G1 X220.993 Y177.876 E2.93892
G1 X220.993 Y178.524 E.02289
G1 X161.476 Y119.007 E2.97129
M73 P26 R3
G1 X160.827 Y119.007 E.02289
G1 X220.993 Y179.173 E3.00366
G1 X220.993 Y179.821 E.02289
G1 X160.179 Y119.007 E3.03602
G1 X159.53 Y119.007 E.02289
G1 X220.993 Y180.47 E3.06839
M73 P27 R3
G1 X220.993 Y181.118 E.02289
G1 X158.882 Y119.007 E3.10076
G1 X158.234 Y119.007 E.02289
G1 X220.993 Y181.766 E3.13313
G1 X220.993 Y182.415 E.02289
G1 X157.585 Y119.007 E3.1655
M73 P28 R3
G1 X156.937 Y119.007 E.02289
G1 X220.993 Y183.063 E3.19787
G1 X220.993 Y183.711 E.02289
G1 X156.289 Y119.007 E3.23024
G1 X155.64 Y119.007 E.02289
G1 X220.993 Y184.36 E3.26261
M73 P29 R3
G1 X220.993 Y185.008 E.02289
G1 X154.992 Y119.007 E3.29497
G1 X154.343 Y119.007 E.02289
G1 X220.993 Y185.657 E3.32734
G1 X220.993 Y186.305 E.02289
G1 X153.695 Y119.007 E3.35971
M73 P30 R3
G1 X153.047 Y119.007 E.02289
G1 X220.993 Y186.953 E3.39208
G1 X220.993 Y187.602 E.02289
G1 X152.398 Y119.007 E3.42445
M73 P31 R3
G1 X151.75 Y119.007 E.02289
G1 X220.993 Y188.25 E3.45682
G1 X220.993 Y188.898 E.02289
G1 X151.102 Y119.007 E3.48919
G1 X150.453 Y119.007 E.02289
G1 X220.993 Y189.547 E3.52156
M73 P32 R3
G1 X220.993 Y190.195 E.02289
G1 X149.805 Y119.007 E3.55392
G1 X149.156 Y119.007 E.02289
G1 X220.993 Y190.844 E3.58629
G1 X220.993 Y191.492 E.02289
G1 X148.508 Y119.007 E3.61866
M73 P33 R3
G1 X147.86 Y119.007 E.02289
G1 X220.993 Y192.14 E3.65103
G1 X220.993 Y192.789 E.02289
G1 X147.211 Y119.007 E3.6834
M73 P34 R3
G1 X146.563 Y119.007 E.02289
G1 X220.993 Y193.437 E3.71577
G1 X220.993 Y194.085 E.02289
G1 X145.915 Y119.007 E3.74814
G1 X145.266 Y119.007 E.02289
G1 X220.993 Y194.734 E3.7805
M73 P35 R3
G1 X220.993 Y195.382 E.02289
G1 X144.618 Y119.007 E3.81287
G1 X143.969 Y119.007 E.02289
G1 X220.993 Y196.031 E3.84524
M73 P36 R3
G1 X220.993 Y196.679 E.02289
G1 X143.321 Y119.007 E3.87761
G1 X142.673 Y119.007 E.02289
G1 X220.993 Y197.327 E3.90998
G1 X220.993 Y197.976 E.02289
G1 X142.024 Y119.007 E3.94235
M73 P37 R2
G1 X141.376 Y119.007 E.02289
G1 X220.993 Y198.624 E3.97472
G1 X220.993 Y199.272 E.02289
G1 X140.728 Y119.007 E4.00709
M73 P38 R2
G1 X140.079 Y119.007 E.02289
G1 X220.993 Y199.921 E4.03945
G1 X220.993 Y200.569 E.02289
G1 X139.431 Y119.007 E4.07182
M73 P39 R2
G1 X138.782 Y119.007 E.02289
G1 X220.993 Y201.218 E4.10419
G1 X220.993 Y201.866 E.02289
G1 X138.134 Y119.007 E4.13656
G1 X137.486 Y119.007 E.02289
G1 X220.993 Y202.514 E4.16893
M73 P40 R2
G1 X220.993 Y203.163 E.02289
G1 X136.837 Y119.007 E4.2013
G1 X136.189 Y119.007 E.02289
G1 X220.993 Y203.811 E4.23367
M73 P41 R2
G1 X220.993 Y204.459 E.02289
G1 X135.541 Y119.007 E4.26603
G1 X134.892 Y119.007 E.02289
G1 X220.993 Y205.108 E4.2984
M73 P42 R2
G1 X220.993 Y205.756 E.02289
G1 X134.244 Y119.007 E4.33077
G1 X133.596 Y119.007 E.02289
G1 X220.993 Y206.404 E4.36314
G1 X220.993 Y207.053 E.02289
G1 X132.947 Y119.007 E4.39551
M73 P43 R2
G1 X132.299 Y119.007 E.02289
G1 X220.993 Y207.701 E4.42788
G1 X220.993 Y208.35 E.02289
G1 X131.65 Y119.007 E4.46025
M73 P44 R2
G1 X131.002 Y119.007 E.02289
G1 X220.993 Y208.998 E4.49262
G1 X220.993 Y209.646 E.02289
G1 X130.354 Y119.007 E4.52498
M73 P45 R2
G1 X129.705 Y119.007 E.02289
G1 X220.993 Y210.295 E4.55735
G1 X220.993 Y210.943 E.02289
G1 X129.057 Y119.007 E4.58972
M73 P46 R2
G1 X128.409 Y119.007 E.02289
G1 X220.993 Y211.591 E4.62209
G1 X220.993 Y212.24 E.02289
G1 X127.76 Y119.007 E4.65446
M73 P47 R2
G1 X127.112 Y119.007 E.02289
G1 X220.993 Y212.888 E4.68683
G1 X220.993 Y213.537 E.02289
G1 X126.463 Y119.007 E4.7192
M73 P48 R2
G1 X125.815 Y119.007 E.02289
G1 X220.993 Y214.185 E4.75156
G1 X220.993 Y214.833 E.02289
G1 X125.167 Y119.007 E4.78393
M73 P49 R2
G1 X124.518 Y119.007 E.02289
G1 X220.993 Y215.482 E4.8163
G1 X220.993 Y216.13 E.02289
G1 X123.87 Y119.007 E4.84867
G1 X123.222 Y119.007 E.02289
M73 P50 R2
G1 X220.993 Y216.778 E4.88104
G1 X220.993 Y217.427 E.02289
G1 X122.573 Y119.007 E4.91341
G1 X121.925 Y119.007 E.02289
G1 X220.993 Y218.075 E4.94578
M73 P51 R2
G1 X220.993 Y218.724 E.02289
G1 X121.276 Y119.007 E4.97815
G1 X120.628 Y119.007 E.02289
G1 X220.993 Y219.372 E5.01051
M73 P52 R2
G1 X220.993 Y220.02 E.02289
G1 X119.98 Y119.007 E5.04288
G1 X119.331 Y119.007 E.02289
G1 X220.993 Y220.669 E5.07525
M73 P53 R2
G1 X220.993 Y220.993 E.01145
G1 X220.669 Y220.993 E.01144
G1 X119.007 Y119.331 E5.07527
G1 X119.007 Y119.979 E.02289
M73 P54 R2
G1 X220.021 Y220.993 E5.0429
G1 X219.372 Y220.993 E.02289
G1 X119.007 Y120.628 E5.01053
G1 X119.007 Y121.276 E.02289
M73 P55 R2
G1 X218.724 Y220.993 E4.97816
G1 X218.076 Y220.993 E.02289
G1 X119.007 Y121.924 E4.94579
G1 X119.007 Y122.573 E.02289
M73 P56 R2
G1 X217.427 Y220.993 E4.91342
G1 X216.779 Y220.993 E.02289
G1 X119.007 Y123.221 E4.88105
G1 X119.007 Y123.87 E.02289
G1 X216.13 Y220.993 E4.84869
M73 P57 R2
G1 X215.482 Y220.993 E.02289
G1 X119.007 Y124.518 E4.81632
G1 X119.007 Y125.166 E.02289
G1 X214.834 Y220.993 E4.78395
M73 P58 R1
G1 X214.185 Y220.993 E.02289
G1 X119.007 Y125.815 E4.75158
G1 X119.007 Y126.463 E.02289
G1 X213.537 Y220.993 E4.71921
M73 P59 R1
G1 X212.889 Y220.993 E.02289
G1 X119.007 Y127.111 E4.68684
G1 X119.007 Y127.76 E.02289
G1 X212.24 Y220.993 E4.65447
M73 P60 R1
G1 X211.592 Y220.993 E.02289
G1 X119.007 Y128.408 E4.62211
G1 X119.007 Y129.057 E.02289
G1 X210.943 Y220.993 E4.58974
M73 P61 R1
G1 X210.295 Y220.993 E.02289
G1 X119.007 Y129.705 E4.55737
G1 X119.007 Y130.353 E.02289
G1 X209.647 Y220.993 E4.525
M73 P62 R1
G1 X208.998 Y220.993 E.02289
G1 X119.007 Y131.002 E4.49263
G1 X119.007 Y131.65 E.02289
G1 X208.35 Y220.993 E4.46026
M73 P63 R1
G1 X207.702 Y220.993 E.02289
G1 X119.007 Y132.298 E4.42789
G1 X119.007 Y132.947 E.02289
G1 X207.053 Y220.993 E4.39552
M73 P64 R1
G1 X206.405 Y220.993 E.02289
G1 X119.007 Y133.595 E4.36316
G1 X119.007 Y134.244 E.02289
G1 X205.756 Y220.993 E4.33079
G1 X205.108 Y220.993 E.02289
G1 X119.007 Y134.892 E4.29842
M73 P65 R1
G1 X119.007 Y135.54 E.02289
G1 X204.46 Y220.993 E4.26605
G1 X203.811 Y220.993 E.02289
G1 X119.007 Y136.189 E4.23368
M73 P66 R1
G1 X119.007 Y136.837 E.02289
G1 X203.163 Y220.993 E4.20131
G1 X202.515 Y220.993 E.02289
G1 X119.007 Y137.485 E4.16894
M73 P67 R1
G1 X119.007 Y138.134 E.02289
G1 X201.866 Y220.993 E4.13658
G1 X201.218 Y220.993 E.02289
G1 X119.007 Y138.782 E4.10421
G1 X119.007 Y139.431 E.02289
G1 X200.569 Y220.993 E4.07184
M73 P68 R1
G1 X199.921 Y220.993 E.02289
G1 X119.007 Y140.079 E4.03947
G1 X119.007 Y140.727 E.02289
G1 X199.273 Y220.993 E4.0071
M73 P69 R1
G1 X198.624 Y220.993 E.02289
G1 X119.007 Y141.376 E3.97473
G1 X119.007 Y142.024 E.02289
G1 X197.976 Y220.993 E3.94236
M73 P70 R1
G1 X197.328 Y220.993 E.02289
G1 X119.007 Y142.672 E3.90999
G1 X119.007 Y143.321 E.02289
G1 X196.679 Y220.993 E3.87763
G1 X196.031 Y220.993 E.02289
G1 X119.007 Y143.969 E3.84526
M73 P71 R1
G1 X119.007 Y144.618 E.02289
G1 X195.382 Y220.993 E3.81289
G1 X194.734 Y220.993 E.02289
G1 X119.007 Y145.266 E3.78052
M73 P72 R1
G1 X119.007 Y145.914 E.02289
G1 X194.086 Y220.993 E3.74815
G1 X193.437 Y220.993 E.02289
G1 X119.007 Y146.563 E3.71578
G1 X119.007 Y147.211 E.02289
G1 X192.789 Y220.993 E3.68341
M73 P73 R1
G1 X192.141 Y220.993 E.02289
G1 X119.007 Y147.859 E3.65104
G1 X119.007 Y148.508 E.02289
G1 X191.492 Y220.993 E3.61868
M73 P74 R1
G1 X190.844 Y220.993 E.02289
G1 X119.007 Y149.156 E3.58631
G1 X119.007 Y149.805 E.02289
G1 X190.195 Y220.993 E3.55394
G1 X189.547 Y220.993 E.02289
G1 X119.007 Y150.453 E3.52157
M73 P75 R1
G1 X119.007 Y151.101 E.02289
G1 X188.899 Y220.993 E3.4892
G1 X188.25 Y220.993 E.02289
G1 X119.007 Y151.75 E3.45683
G1 X119.007 Y152.398 E.02289
G1 X187.602 Y220.993 E3.42446
M73 P76 R1
G1 X186.954 Y220.993 E.02289
G1 X119.007 Y153.046 E3.3921
G1 X119.007 Y153.695 E.02289
G1 X186.305 Y220.993 E3.35973
M73 P77 R1
G1 X185.657 Y220.993 E.02289
G1 X119.007 Y154.343 E3.32736
G1 X119.007 Y154.992 E.02289
G1 X185.008 Y220.993 E3.29499
G1 X184.36 Y220.993 E.02289
G1 X119.007 Y155.64 E3.26262
M73 P78 R1
G1 X119.007 Y156.288 E.02289
G1 X183.712 Y220.993 E3.23025
G1 X183.063 Y220.993 E.02289
G1 X119.007 Y156.937 E3.19788
G1 X119.007 Y157.585 E.02289
G1 X182.415 Y220.993 E3.16551
M73 P79 R1
G1 X181.767 Y220.993 E.02289
M73 P79 R0
G1 X119.007 Y158.233 E3.13315
G1 X119.007 Y158.882 E.02289
G1 X181.118 Y220.993 E3.10078
G1 X180.47 Y220.993 E.02289
G1 X119.007 Y159.53 E3.06841
M73 P80 R0
G1 X119.007 Y160.178 E.02289
G1 X179.822 Y220.993 E3.03604
G1 X179.173 Y220.993 E.02289
G1 X119.007 Y160.827 E3.00367
G1 X119.007 Y161.475 E.02289
G1 X178.525 Y220.993 E2.9713
M73 P81 R0
G1 X177.876 Y220.993 E.02289
G1 X119.007 Y162.124 E2.93893
G1 X119.007 Y162.772 E.02289
G1 X177.228 Y220.993 E2.90657
G1 X176.58 Y220.993 E.02289
G1 X119.007 Y163.42 E2.8742
M73 P82 R0
G1 X119.007 Y164.069 E.02289
